svgs/thin/circle-sort-down.svg

<svg xmlns="http://www.w3.org/2000/svg" viewBox="0 0 512 512"><!--! Font Awesome Pro 6.3.0 by @fontawesome - https://fontawesome.com License - https://fontawesome.com/license (Commercial License) Copyright 2023 Fonticons, Inc. --><path d="M335.8 288H176.2C166.2 288 157.7 293.7 153.9 302.9c-3.812 9.156-1.844 19.22 5.156 26.22l80.09 80C243.8 413.5 249.8 416 256 416c6.219 0 12.44-2.531 17.12-7.031l79.84-79.88c7-7 8.969-17.06 5.156-26.22C354.3 293.7 345.8 288 335.8 288zM341.7 317.8l-79.72 79.75c-3.219 3.125-8.531 3.062-11.62 .125L170.3 317.8C166.8 314.3 168.2 310.2 168.7 309C169.1 307.8 171.1 304 176.2 304h159.7c5.031 0 7.031 3.812 7.5 5C343.8 310.2 345.2 314.3 341.7 317.8zM273 102.9C263.9 94.13 248.5 93.97 239 103L154.4 186.3C151.3 189.4 151.2 194.5 154.3 197.6c3.094 3.125 8.156 3.188 11.31 .0625l84.56-83.22c3.344-3.219 8.625-3 11.66-.0938l84.53 83.31C347.9 199.2 349.1 200 352 200c2.062 0 4.125-.7813 5.688-2.375c3.125-3.156 3.062-8.219-.0625-11.31L273 102.9zM256 0c-141.4 0-256 114.6-256 256s114.6 256 256 256s256-114.6 256-256S397.4 0 256 0zM256 496c-132.3 0-240-107.7-240-240S123.7 16 256 16s240 107.7 240 240S388.3 496 256 496z"/></svg>

<svg xmlns="http://www.w3.org/2000/svg" viewBox="0 0 512 512"><!-- Font Awesome Pro 6.0.0-alpha2 by @fontawesome - https://fontawesome.com License - https://fontawesome.com/license (Commercial License) --><path d="M256 16C123.42 16 16 123.42 16 256S123.42 496 256 496C388.582 496 496 388.58 496 256S388.582 16 256 16ZM256 480C132.486 480 32 379.514 32 256S132.486 32 256 32S480 132.486 480 256S379.514 480 256 480ZM335.844 288H176.156C166.219 288 157.688 293.688 153.875 302.875C150.063 312.031 152.031 322.094 159.031 329.094L239.125 409.094C243.781 413.531 249.75 416 256 416C262.219 416 268.438 413.469 273.125 408.969L352.969 329.094C359.969 322.094 361.937 312.031 358.125 302.875C354.312 293.688 345.781 288 335.844 288ZM341.656 317.781L261.938 397.531C258.719 400.656 253.406 400.594 250.313 397.656L170.344 317.781C166.844 314.281 168.156 310.188 168.656 309C169.125 307.812 171.125 304 176.156 304H335.844C340.875 304 342.875 307.812 343.344 309C343.844 310.188 345.156 314.281 341.656 317.781ZM273 102.906C263.875 94.125 248.531 93.969 239.031 103L154.375 186.312C151.25 189.406 151.188 194.469 154.312 197.625C157.406 200.75 162.469 200.812 165.625 197.687L250.187 114.469C253.531 111.25 258.812 111.469 261.844 114.375L346.375 197.687C347.938 199.219 349.969 200 352 200C354.062 200 356.125 199.219 357.688 197.625C360.812 194.469 360.75 189.406 357.625 186.312L273 102.906Z"/></svg>
